X:2364
T:Oie as Laa 
C:Mr Robert Kerruish, Booilley Velt, Maughold ca.1916 
C:Traditional
O:Isle of Man
Z:Kiaull Vannin 364 
M:4/4 
L:1/8 
Q:120 
K:D 
A2 (Bc) d3 c/c/|B2 A2 F2 D2|A2 Bc d3 c|B2 A2 B2 F2|
A3 A F2 D2| E2 E2 G2 E2|d3 d F2 D2|E>D E2 F2 D2|| 

